public/theme/icons/peanuts.svg

<svg width="33" height="34" viewBox="0 0 33 34" fill="none" xmlns="http://www.w3.org/2000/svg">
<circle cx="15" cy="15" r="15" fill="#C6984C"/>
<path fill-rule="evenodd" clip-rule="evenodd" d="M21.9414 28.3007L8.98438 15.3438L15.3398 8.98828L28.2981 21.9465C26.8786 24.6584 24.6538 26.8823 21.9414 28.3007Z" fill="#BF9141"/>
<g filter="url(#filter0_d_105_29576)">
<path fill-rule="evenodd" clip-rule="evenodd" d="M19.2871 13.7721C18.0966 13.3756 17.0098 12.2887 16.6134 11.0982C16.3446 10.2908 15.9146 9.5527 15.3687 9.00689C13.7091 7.34726 10.9394 7.42617 9.18246 9.18314C7.42549 10.9401 7.34658 13.7098 9.00621 15.3694C9.55193 15.9152 10.2899 16.3451 11.0971 16.6139C12.2876 17.0104 13.3745 18.0973 13.7709 19.2879C14.0397 20.0952 14.4697 20.8333 15.0155 21.3792C16.6751 23.0388 19.4448 22.9599 21.2018 21.2029C22.9588 19.4459 23.0377 16.6762 21.3781 15.0166C20.8323 14.4709 20.0944 14.0409 19.2871 13.7721Z" fill="#BF9141"/>
<path fill-rule="evenodd" clip-rule="evenodd" d="M7.96381 11.2814C7.57829 12.723 7.91995 14.2839 9.00571 15.3697C9.55144 15.9154 10.2894 16.3454 11.0966 16.6142C12.2871 17.0107 13.374 18.0976 13.7704 19.2881C14.0392 20.0955 14.4692 20.8336 15.015 21.3794C16.2152 22.5796 17.9959 22.8706 19.5543 22.2753C19.2774 22.1392 19.0095 21.9867 18.7503 21.8188C16.9629 20.661 15.6358 18.8041 14.632 16.7418C14.2276 15.9109 13.4398 15.3058 12.5099 15.0239C10.2138 14.328 8.74655 12.9739 7.96381 11.2814ZM21.6613 20.6704C21.5235 20.8561 21.3702 21.0343 21.2013 21.2032C21.0326 21.3719 20.8545 21.5252 20.6689 21.6629C20.1793 21.4877 19.722 21.2568 19.2939 20.9794C17.7204 19.9602 16.4946 18.2835 15.5312 16.3042C14.9849 15.1817 13.9492 14.4153 12.8 14.0669C10.6122 13.4038 9.34727 12.1057 8.7318 10.5342C8.66043 10.3519 8.59755 10.1654 8.54292 9.97497C8.72294 9.69514 8.93601 9.42934 9.18197 9.18339C9.42852 8.93684 9.69501 8.72333 9.97558 8.54304C10.3522 8.65129 10.7139 8.7918 11.0566 8.96645C12.2053 9.55167 13.1841 10.5418 13.8086 12.0736C13.9471 12.4134 14.3925 12.5254 14.652 12.266C14.7845 12.1334 14.8297 11.9355 14.7603 11.7613C14.0573 9.99627 12.9174 8.79218 11.5106 8.07543C11.4352 8.03701 11.3592 8.00006 11.2825 7.96456C12.7234 7.58011 14.2831 7.922 15.3683 9.00714C15.9141 9.55295 16.3441 10.291 16.6129 11.0984C17.0093 12.289 18.0961 13.3759 19.2866 13.7723C20.0939 14.0412 20.8318 14.4711 21.3776 15.0169C22.5775 16.2168 22.8686 17.997 22.2738 19.5552C22.1375 19.2777 21.9846 19.0092 21.8164 18.7494C21.0302 17.5357 19.9216 16.5342 18.6453 15.7021C18.4528 15.5766 18.1995 15.607 18.037 15.7694C17.8083 15.9981 17.8566 16.3807 18.1271 16.558C19.3035 17.3291 20.2898 18.232 20.9771 19.2931C21.2548 19.7219 21.486 20.1799 21.6613 20.6704Z" fill="white"/>
<path fill-rule="evenodd" clip-rule="evenodd" d="M20.1176 14.1172C19.5784 14.8608 19.0852 15.5027 18.5886 16.0894L19.4332 16.6388C19.9304 16.0451 20.4263 15.3967 20.9651 14.6519C20.7073 14.4514 20.422 14.2721 20.1176 14.1172ZM21.7486 15.4412C21.7401 15.4512 21.732 15.4616 21.7242 15.4724C20.3679 17.3548 19.3159 18.5894 17.8085 19.8917L18.5981 20.5301C20.0017 19.2997 21.0383 18.1047 22.285 16.402C22.1523 16.0629 21.9736 15.7395 21.7486 15.4412ZM21.2019 21.2015C19.4449 22.9584 16.6753 23.0373 15.0157 21.3777C14.4699 20.8319 14.0399 20.0938 13.771 19.2864C13.3746 18.0959 12.2878 17.0089 11.0973 16.6124C10.4654 16.402 9.87602 16.0929 9.38803 15.7068C12.351 13.5373 13.744 12.1031 15.7081 9.38784C15.6008 9.25215 15.4875 9.12429 15.3688 9.00553C15.2491 8.88586 15.1237 8.77524 14.9932 8.67362C14.9825 8.68579 14.9723 8.69859 14.9626 8.71202C13.0059 11.4277 11.6825 12.7953 8.7111 14.9629C8.69829 14.9722 8.68606 14.9821 8.67441 14.9924C7.36688 13.3142 7.55233 10.8121 9.18247 9.18179C7.4255 10.9388 7.34659 13.7084 9.00622 15.3681C9.55194 15.9138 10.2899 16.3437 11.0971 16.6126C12.2876 17.0091 13.3745 18.096 13.7709 19.2865C14.0397 20.0939 14.4697 20.832 15.0155 21.3778C16.6751 23.0375 19.4448 22.9585 21.2018 21.2016C21.2018 21.2016 21.2019 21.2015 21.2019 21.2015ZM12.9956 7.84657C12.3008 8.78002 11.668 9.55127 10.9799 10.2707C10.7886 10.4707 10.7876 10.7877 10.9833 10.9834C11.1781 11.1782 11.4942 11.1792 11.6849 10.9803C12.4862 10.1445 13.2153 9.24263 14.0363 8.12025C13.7023 7.98403 13.3524 7.89289 12.9956 7.84657ZM17.1572 13.975C17.3647 14.1825 17.3548 14.5287 17.1352 14.7483C16.9156 14.9679 16.5693 14.9778 16.3619 14.7703C16.1544 14.5629 16.1643 14.2167 16.3839 13.9971C16.6035 13.7774 16.9498 13.7676 17.1572 13.975Z" fill="#BF9141"/>
</g>
<defs>
<filter id="filter0_d_105_29576" x="3.81104" y="5.81201" width="22.7617" height="22.7623" filterUnits="userSpaceOnUse" color-interpolation-filters="sRGB">
<feFlood flood-opacity="0" result="BackgroundImageFix"/>
<feColorMatrix in="SourceAlpha" type="matrix" values="0 0 0 0 0 0 0 0 0 0 0 0 0 0 0 0 0 0 127 0" result="hardAlpha"/>
<feOffset dy="2"/>
<feGaussianBlur stdDeviation="2"/>
<feComposite in2="hardAlpha" operator="out"/>
<feColorMatrix type="matrix" values="0 0 0 0 0 0 0 0 0 0 0 0 0 0 0 0 0 0 0.1 0"/>
<feBlend mode="normal" in2="BackgroundImageFix" result="effect1_dropShadow_105_29576"/>
<feBlend mode="normal" in="SourceGraphic" in2="effect1_dropShadow_105_29576" result="shape"/>
</filter>
</defs>
</svg>

<svg xmlns="http://www.w3.org/2000/svg" width="33" height="34" fill="none"><circle cx="15" cy="15" r="15" fill="#C6984C"/><path fill="#BF9141" fill-rule="evenodd" d="M21.941 28.3 8.984 15.345l6.356-6.356 12.958 12.959a15.07 15.07 0 0 1-6.357 6.354" clip-rule="evenodd"/><g fill-rule="evenodd" clip-rule="evenodd" filter="url(#a)"><path fill="#BF9141" d="M19.287 13.772c-1.19-.396-2.277-1.483-2.674-2.674-.268-.807-.698-1.545-1.244-2.091-1.66-1.66-4.43-1.58-6.187.176s-1.835 4.527-.176 6.186c.546.546 1.284.976 2.091 1.245 1.19.396 2.278 1.483 2.674 2.674.269.807.699 1.545 1.244 2.091 1.66 1.66 4.43 1.58 6.187-.176s1.836-4.527.176-6.186c-.546-.546-1.284-.976-2.09-1.245"/><path fill="#fff" d="M7.964 11.281c-.386 1.442-.044 3.003 1.042 4.089.545.545 1.283.975 2.09 1.244 1.191.397 2.278 1.484 2.674 2.674.27.808.7 1.546 1.245 2.091 1.2 1.2 2.98 1.492 4.54.896a8 8 0 0 1-.805-.456c-1.787-1.158-3.114-3.015-4.118-5.077-.404-.831-1.192-1.436-2.122-1.718-2.296-.696-3.763-2.05-4.546-3.743m13.697 9.39a4.8 4.8 0 0 1-.992.992 6.6 6.6 0 0 1-1.375-.684c-1.574-1.019-2.8-2.695-3.763-4.675-.546-1.122-1.582-1.889-2.731-2.237-2.188-.663-3.453-1.961-4.068-3.533a6 6 0 0 1-.19-.559 4.8 4.8 0 0 1 1.434-1.432 6 6 0 0 1 1.08.423c1.15.586 2.128 1.576 2.753 3.108.138.34.584.451.843.192a.47.47 0 0 0 .108-.505c-.703-1.765-1.843-2.969-3.25-3.686a7 7 0 0 0-.227-.11c1.44-.385 3-.043 4.085 1.042.546.546.976 1.284 1.245 2.091.396 1.191 1.483 2.278 2.674 2.674.807.27 1.545.7 2.09 1.245 1.2 1.2 1.492 2.98.897 4.538a8 8 0 0 0-.458-.806c-.786-1.213-1.894-2.215-3.17-3.047a.486.486 0 0 0-.609.067.513.513 0 0 0 .09.789c1.177.771 2.163 1.674 2.85 2.735.278.429.509.887.684 1.377"/><path fill="#BF9141" d="M20.118 14.117a33 33 0 0 1-1.53 1.972l.845.55c.497-.594.993-1.242 1.532-1.987-.258-.2-.543-.38-.847-.535m1.63 1.324-.024.031c-1.356 1.883-2.408 3.117-3.916 4.42l.79.638c1.404-1.23 2.44-2.425 3.687-4.128a4 4 0 0 0-.536-.96m-.546 5.76c-1.757 1.757-4.527 1.836-6.186.177-.546-.546-.976-1.284-1.245-2.092-.396-1.19-1.483-2.277-2.674-2.674a5.6 5.6 0 0 1-1.709-.905c2.963-2.17 4.356-3.604 6.32-6.32a4.054 4.054 0 0 0-.715-.714l-.03.039c-1.957 2.716-3.28 4.083-6.252 6.25l-.037.03c-1.307-1.678-1.122-4.18.508-5.81-1.756 1.757-1.835 4.526-.176 6.186.546.546 1.284.976 2.091 1.245 1.19.396 2.278 1.483 2.674 2.674.269.807.699 1.545 1.244 2.09 1.66 1.66 4.43 1.582 6.187-.175M12.996 7.848c-.695.933-1.328 1.704-2.016 2.424a.51.51 0 0 0 .003.712.49.49 0 0 0 .702-.003c.801-.835 1.53-1.737 2.351-2.86a4.2 4.2 0 0 0-1.04-.273m4.161 6.128c.208.207.198.554-.022.773-.22.22-.566.23-.773.022-.208-.207-.198-.553.022-.773s.566-.23.773-.022"/></g><defs><filter id="a" width="22.762" height="22.762" x="3.811" y="5.812" color-interpolation-filters="sRGB" filterUnits="userSpaceOnUse"><feFlood flood-opacity="0" result="BackgroundImageFix"/><feColorMatrix in="SourceAlpha" result="hardAlpha" values="0 0 0 0 0 0 0 0 0 0 0 0 0 0 0 0 0 0 127 0"/><feOffset dy="2"/><feGaussianBlur stdDeviation="2"/><feComposite in2="hardAlpha" operator="out"/><feColorMatrix values="0 0 0 0 0 0 0 0 0 0 0 0 0 0 0 0 0 0 0.1 0"/><feBlend in2="BackgroundImageFix" result="effect1_dropShadow_105_29576"/><feBlend in="SourceGraphic" in2="effect1_dropShadow_105_29576" result="shape"/></filter></defs></svg>
